svgs/thin/ethernet.svg

<svg xmlns="http://www.w3.org/2000/svg" viewBox="0 0 512 512"><!--! Font Awesome Pro 6.6.0 by @fontawesome - https://fontawesome.com License - https://fontawesome.com/license (Commercial License) Copyright 2024 Fonticons, Inc. --><path d="M128 96c0-17.7 14.3-32 32-32l192 0c17.7 0 32 14.3 32 32l0 32 32 0c17.7 0 32 14.3 32 32l0 32 32 0c17.7 0 32 14.3 32 32l0 192c0 17.7-14.3 32-32 32l-80 0-96 0-96 0-96 0-80 0c-17.7 0-32-14.3-32-32L0 224c0-17.7 14.3-32 32-32l32 0 0-32c0-17.7 14.3-32 32-32l32 0 0-32zm32-16c-8.8 0-16 7.2-16 16l0 40c0 4.4-3.6 8-8 8l-40 0c-8.8 0-16 7.2-16 16l0 40c0 4.4-3.6 8-8 8l-40 0c-8.8 0-16 7.2-16 16l0 192c0 8.8 7.2 16 16 16l72 0 0-104c0-4.4 3.6-8 8-8s8 3.6 8 8l0 104 80 0 0-104c0-4.4 3.6-8 8-8s8 3.6 8 8l0 104 80 0 0-104c0-4.4 3.6-8 8-8s8 3.6 8 8l0 104 80 0 0-104c0-4.4 3.6-8 8-8s8 3.6 8 8l0 104 72 0c8.8 0 16-7.2 16-16l0-192c0-8.8-7.2-16-16-16l-40 0c-4.4 0-8-3.6-8-8l0-40c0-8.8-7.2-16-16-16l-40 0c-4.4 0-8-3.6-8-8l0-40c0-8.8-7.2-16-16-16L160 80z"/></svg>

<svg xmlns="http://www.w3.org/2000/svg" viewBox="0 0 512 512"><!--! Font Awesome Pro 6.4.2 by @fontawesome - https://fontawesome.com License - https://fontawesome.com/license (Commercial License) Copyright 2023 Fonticons, Inc. --><path d="M128 96c0-17.7 14.3-32 32-32H352c17.7 0 32 14.3 32 32v32h32c17.7 0 32 14.3 32 32v32h32c17.7 0 32 14.3 32 32V416c0 17.7-14.3 32-32 32H400 304 208 112 32c-17.7 0-32-14.3-32-32V224c0-17.7 14.3-32 32-32H64V160c0-17.7 14.3-32 32-32h32V96zm32-16c-8.8 0-16 7.2-16 16v40c0 4.4-3.6 8-8 8H96c-8.8 0-16 7.2-16 16v40c0 4.4-3.6 8-8 8H32c-8.8 0-16 7.2-16 16V416c0 8.8 7.2 16 16 16h72V328c0-4.4 3.6-8 8-8s8 3.6 8 8V432h80V328c0-4.4 3.6-8 8-8s8 3.6 8 8V432h80V328c0-4.4 3.6-8 8-8s8 3.6 8 8V432h80V328c0-4.4 3.6-8 8-8s8 3.6 8 8V432h72c8.8 0 16-7.2 16-16V224c0-8.8-7.2-16-16-16H440c-4.4 0-8-3.6-8-8V160c0-8.8-7.2-16-16-16H376c-4.4 0-8-3.6-8-8V96c0-8.8-7.2-16-16-16H160z"/></svg>
